Sweet-Rainbow/icons/kruler.svg

<?xml version="1.0" encoding="UTF-8" standalone="no"?>
<!-- Generator: Gravit.io -->

<svg
   xmlns:dc="http://purl.org/dc/elements/1.1/"
   xmlns:cc="http://creativecommons.org/ns#"
   xmlns:rdf="http://www.w3.org/1999/02/22-rdf-syntax-ns#"
   xmlns:svg="http://www.w3.org/2000/svg"
   xmlns="http://www.w3.org/2000/svg"
   xmlns:sodipodi="http://sodipodi.sourceforge.net/DTD/sodipodi-0.dtd"
   xmlns:inkscape="http://www.inkscape.org/namespaces/inkscape"
   style="isolation:isolate"
   viewBox="0 0 36 36"
   width="48"
   height="48"
   version="1.1"
   id="svg11"
   sodipodi:docname="kruler.svg"
   inkscape:version="0.92.4 (5da689c313, 2019-01-14)">
  <metadata
     id="metadata17">
    <rdf:RDF>
      <cc:Work
         rdf:about="">
        <dc:format>image/svg+xml</dc:format>
        <dc:type
           rdf:resource="http://purl.org/dc/dcmitype/StillImage" />
        <dc:title></dc:title>
      </cc:Work>
    </rdf:RDF>
  </metadata>
  <defs
     id="defs15" />
  <sodipodi:namedview
     pagecolor="#ffffff"
     bordercolor="#666666"
     borderopacity="1"
     objecttolerance="10"
     gridtolerance="10"
     guidetolerance="10"
     inkscape:pageopacity="0"
     inkscape:pageshadow="2"
     inkscape:window-width="640"
     inkscape:window-height="480"
     id="namedview13"
     showgrid="false"
     inkscape:zoom="29.365243"
     inkscape:cx="25.325443"
     inkscape:cy="32"
     inkscape:current-layer="svg11"
     units="px" />
  <linearGradient
     id="_lgradient_0"
     x1="0"
     y1="0.5"
     x2="1"
     y2="0.5"
     gradientTransform="matrix(47.4,0,0,29.4,0.3,10.3)"
     gradientUnits="userSpaceOnUse">
    <stop
       offset="0%"
       stop-opacity="1"
       style="stop-color:rgb(34,216,143)"
       id="stop2" />
    <stop
       offset="51.73913043478261%"
       stop-opacity="1"
       style="stop-color:rgb(147,135,218)"
       id="stop4" />
    <stop
       offset="98.69565217391305%"
       stop-opacity="1"
       style="stop-color:rgb(255,89,230)"
       id="stop6" />
  </linearGradient>
  <g
     id="g825"
     transform="matrix(0.75949367,0,0,0.75949367,-0.22784808,-0.98734175)">
    <path
       id="path9"
       d="m 30,13.7 h -4.812 v 8.238 h -2.5 v -8.238 0 H 18 V 25 h -4 v -11.3 0 h -4 v 0 8.3 H 7.5 V 13.7 H 3.7 v 22.6 h 40.6 v -22.6 0 0 h -3.8 v 0 0 8.425 H 38 V 13.7 h -4 v 11.425 h -4 z m 5.535,19.798 V 34.9 h -5.513 v -1.159 l 1.979,-2.002 v 0 q 0.88,-0.901 1.149,-1.249 v 0 0 q 0.27,-0.348 0.389,-0.644 v 0 0 q 0.118,-0.297 0.118,-0.615 v 0 0 q 0,-0.475 -0.261,-0.707 v 0 0 q -0.262,-0.232 -0.699,-0.232 v 0 0 q -0.458,0 -0.89,0.211 v 0 0 q -0.431,0.21 -0.901,0.598 v 0 L 30,28.028 v 0 q 0.583,-0.496 0.966,-0.701 v 0 0 q 0.383,-0.205 0.836,-0.316 v 0 0 Q 32.255,26.9 32.816,26.9 v 0 0 q 0.739,0 1.305,0.27 v 0 0 q 0.567,0.27 0.88,0.755 v 0 0 q 0.313,0.486 0.313,1.112 v 0 0 q 0,0.544 -0.192,1.022 v 0 0 q -0.191,0.477 -0.593,0.979 v 0 0 q -0.402,0.502 -1.416,1.429 v 0 l -1.015,0.955 v 0.076 z M 17.918,27 v 7.9 h -1.67 v -4.571 l 0.016,-0.751 0.027,-0.822 v 0 q -0.416,0.416 -0.578,0.546 v 0 L 14.805,30.032 14,29.026 16.545,27 Z M 47.7,12.3 v 25.4 c 0,1.104 -0.896,2 -2,2 H 2.3 c -1.104,0 -2,-0.896 -2,-2 V 12.3 c 0,-1.104 0.896,-2 2,-2 h 43.4 c 1.104,0 2,0.896 2,2 z"
       style="fill:url(#_lgradient_0);fill-rule:evenodd"
       inkscape:connector-curvature="0" />
  </g>
</svg>

<?xml version="1.0" encoding="UTF-8" standalone="no"?><!-- Generator: Gravit.io --><svg xmlns="http://www.w3.org/2000/svg" xmlns:xlink="http://www.w3.org/1999/xlink" style="isolation:isolate" viewBox="0 0 48 48" width="48pt" height="48pt"><linearGradient id="_lgradient_0" x1="0" y1="0.5" x2="1" y2="0.5" gradientTransform="matrix(47.4,0,0,29.4,0.3,10.3)" gradientUnits="userSpaceOnUse"><stop offset="0%" stop-opacity="1" style="stop-color:rgb(34,216,143)"/><stop offset="51.73913043478261%" stop-opacity="1" style="stop-color:rgb(147,135,218)"/><stop offset="98.69565217391305%" stop-opacity="1" style="stop-color:rgb(255,89,230)"/></linearGradient><path d=" M 30 13.7 L 25.188 13.7 L 25.188 21.938 L 22.688 21.938 L 22.688 13.7 L 22.688 13.7 L 18 13.7 L 18 25 L 14 25 L 14 13.7 L 14 13.7 L 10 13.7 L 10 13.7 L 10 22 L 7.5 22 L 7.5 13.7 L 3.7 13.7 L 3.7 36.3 L 44.3 36.3 L 44.3 13.7 L 44.3 13.7 L 44.3 13.7 L 40.5 13.7 L 40.5 13.7 L 40.5 13.7 L 40.5 22.125 L 38 22.125 L 38 13.7 L 34 13.7 L 34 25.125 L 30 25.125 L 30 13.7 Z  M 35.535 33.498 L 35.535 34.9 L 30.022 34.9 L 30.022 33.741 L 32.001 31.739 L 32.001 31.739 Q 32.881 30.838 33.15 30.49 L 33.15 30.49 L 33.15 30.49 Q 33.42 30.142 33.539 29.846 L 33.539 29.846 L 33.539 29.846 Q 33.657 29.549 33.657 29.231 L 33.657 29.231 L 33.657 29.231 Q 33.657 28.756 33.396 28.524 L 33.396 28.524 L 33.396 28.524 Q 33.134 28.292 32.697 28.292 L 32.697 28.292 L 32.697 28.292 Q 32.239 28.292 31.807 28.503 L 31.807 28.503 L 31.807 28.503 Q 31.376 28.713 30.906 29.101 L 30.906 29.101 L 30 28.028 L 30 28.028 Q 30.583 27.532 30.966 27.327 L 30.966 27.327 L 30.966 27.327 Q 31.349 27.122 31.802 27.011 L 31.802 27.011 L 31.802 27.011 Q 32.255 26.9 32.816 26.9 L 32.816 26.9 L 32.816 26.9 Q 33.555 26.9 34.121 27.17 L 34.121 27.17 L 34.121 27.17 Q 34.688 27.44 35.001 27.925 L 35.001 27.925 L 35.001 27.925 Q 35.314 28.411 35.314 29.037 L 35.314 29.037 L 35.314 29.037 Q 35.314 29.581 35.122 30.059 L 35.122 30.059 L 35.122 30.059 Q 34.931 30.536 34.529 31.038 L 34.529 31.038 L 34.529 31.038 Q 34.127 31.54 33.113 32.467 L 33.113 32.467 L 32.098 33.422 L 32.098 33.498 L 35.535 33.498 L 35.535 33.498 L 35.535 33.498 L 35.535 33.498 L 35.535 33.498 L 35.535 33.498 L 35.535 33.498 Z  M 17.918 27 L 17.918 34.9 L 16.248 34.9 L 16.248 30.329 L 16.264 29.578 L 16.291 28.756 L 16.291 28.756 Q 15.875 29.172 15.713 29.302 L 15.713 29.302 L 14.805 30.032 L 14 29.026 L 16.545 27 L 17.918 27 L 17.918 27 Z  M 47.7 12.3 L 47.7 37.7 C 47.7 38.804 46.804 39.7 45.7 39.7 L 2.3 39.7 C 1.196 39.7 0.3 38.804 0.3 37.7 L 0.3 12.3 C 0.3 11.196 1.196 10.3 2.3 10.3 L 45.7 10.3 C 46.804 10.3 47.7 11.196 47.7 12.3 L 47.7 12.3 L 47.7 12.3 L 47.7 12.3 L 47.7 12.3 L 47.7 12.3 L 47.7 12.3 L 47.7 12.3 Z " fill-rule="evenodd" fill="url(#_lgradient_0)"/></svg>
